X: 08000
T: Lady Walpole's Reel
B: Henry Ford's "Good Morning"
Z: 2011 John Chambers <jc:trillian.mit.edu>
R: reel
M: 2/4
L: 1/16
K: G
Bc |\
"G"dBdB dg"C"fe | "G"dBdB dg"C"fe | "G"dBdB edcB | "D7"c2A2 A2Bc |
"G"dBdB dg"C"fe | "G"dBdB dg"C"fe | "G"decd "D7"BcAF | "G"D2G2G2 :|
|: Bc |\
"G"dcBc d2ed | "D7"cBAB c2dc | "G"BGBG cBAG | "D7"A2A2 A2Bc |
"G"dcBc d2ed | "D7"cBAB c2dc | "G"BgGB "D7"AcFA | "G"D2G2G2 :|


%%sep 5 1 500

